material/.icons/material/debug-step-over.svg

<svg xmlns="http://www.w3.org/2000/svg" viewBox="0 0 24 24"><path d="M12 14a2 2 0 012 2 2 2 0 01-2 2 2 2 0 01-2-2 2 2 0 012-2m11.46-5.14l-1.59 6.89L15 14.16l3.8-2.38A7.972 7.972 0 0012 8c-3.95 0-7.23 2.86-7.88 6.63l-1.97-.35C2.96 9.58 7.06 6 12 6c3.58 0 6.73 1.89 8.5 4.72l2.96-1.86z"/></svg>

<?xml version="1.0" encoding="UTF-8"?><!DOCTYPE svg PUBLIC "-//W3C//DTD SVG 1.1//EN" "http://www.w3.org/Graphics/SVG/1.1/DTD/svg11.dtd"><svg xmlns="http://www.w3.org/2000/svg" xmlns:xlink="http://www.w3.org/1999/xlink" version="1.1" id="mdi-debug-step-over" width="24" height="24" viewBox="0 0 24 24"><path d="M12,14A2,2 0 0,1 14,16A2,2 0 0,1 12,18A2,2 0 0,1 10,16A2,2 0 0,1 12,14M23.46,8.86L21.87,15.75L15,14.16L18.8,11.78C17.39,9.5 14.87,8 12,8C8.05,8 4.77,10.86 4.12,14.63L2.15,14.28C2.96,9.58 7.06,6 12,6C15.58,6 18.73,7.89 20.5,10.72L23.46,8.86Z" /></svg>
